!!!!SEGMENT: pl-kk--kk-i-397--001-003_kaspar--missa-credo.krn
!!!cenid: 18xx:1448
!!!COM: Kaspar
!!!COM-rismID: pe30048142
!!!CDT:
!!!CNT:
!!!OPR: Missa
!!!OTL: Credo
!!!OMV: 003
!!!PDT: 1856
!!!AGN: Sacred; Mass
!!!SMS-siglum: PL-Kk
!!!SMS-shelfmark: Kk.I.397
!!!SMS-shelfwork: 001-003 M
!!!SMS-variant: Sopran Pl-Kk KK.I.397:0013-0014; Alt Pl-Kk KK.I.397:0018-0019; Tenor Pl-Kk KK.I.397:0023-0024; Bas Pl-Kk KK.I.397:0028-0029
!!!SMS-altvar: [Partytura] Pl-Kk KK.I.397:0005-0007
!!!NIFC-rismSourceID: 1001139936
!!!NIFC-rismChildID: 1001139936
!!!NIFC-islandoraID: pl-kk:7559
!!!URL-pdf-islandora: https://repozytorium.nifc.pl/islandora/object/pl-kk%3A7559/datastream/PDF/view
!!!URL-scan: https://polish.musicsources.pl/pl/lokalizacje/galeria/rekopisy/6007 @EN{Scan on Polish Music Sources Website} @PL{Skany w portalu Dziedzictwo Muzyki Polskiej w otwartym dostępie}
!!!IIIF:
!!!ONB-nifc: UWAGA: na podstawie głosów. Proszę uzupełnić pola SMS dot. partytury i głosów. Uwaga: części Mszy: 1. Kyrie, 2. Gloria, 3. Credo, 4. Sanctus, 5. Benedictus, 6. Agnus
!!!AIN: 1 alto 1 empty 1 soprn 1 tenor
!!!key:
**kern	**text	**dynam	**kern	**text	**dynam	**kern	**text	**dynam	**kern	**text	**dynam
*part4	*part4	*part4	*part3	*part3	*part3	*part2	*part2	*part2	*part1	*part1	*part1
*staff4	*staff4	*	*staff3	*staff3	*	*staff2	*staff2	*	*staff1	*staff1	*
*Iempty	*	*	*Itenor	*	*	*Ialto	*	*	*Isoprn	*	*
*I"Bas.	*	*	*I"Tenor.	*	*	*I"Alt.	*	*	*I"Sopran	*	*
*I'B	*	*	*I'T	*	*	*I'A	*	*	*I'S	*	*
*clefF4	*	*	*clefC4	*	*	*clefC3	*	*	*clefC1	*	*
*k[b-]	*	*	*k[b-]	*	*	*k[b-]	*	*	*k[b-]	*	*
*F:	*	*	*F:	*	*	*F:	*	*	*F:	*	*
*M4/4	*	*	*M4/4	*	*	*M4/4	*	*	*M4/4	*	*
*met(c)	*	*	*met(c)	*	*	*met(c)	*	*	*met(c)	*	*
=1	=1	=1	=1	=1	=1	=1	=1	=1	=1	=1	=1
*all\right	*	*	*all\right	*	*	*all\right	*	*	*all\right	*	*
!LO:TX:a:B:t=Andante\n con moto	!	!	!LO:TX:a:B:t=Andante\n con moto	!	!LO:DY:rj	!LO:TX:a:B:t=andante\n con moto	!	!	!LO:TX:a:t=Andante con moto.	!	!LO:DY:t=p.
4F\	Pa-	.	4c\	Pa-	p	4f\	Pa-	.	4a\	Pa-	p
8.F\	-trem	.	8.c\	-trem	.	8.f\	-trem	.	8.a\	-trem	.
16F\	o-	.	16c\	o-	.	16f\	o-	.	16a\	o-	.
4F\	-mni-	.	4c\	-mni-	.	4f\	-mni-	.	4a\	-mni-	.
4F\	-po-	.	4c\	-po-	.	4f\	-po-	.	4a\	-po-	.
=2	=2	=2	=2	=2	=2	=2	=2	=2	=2	=2	=2
4F\	-ten-	.	4c\	-ten-	.	4f\	-ten-	.	4a\	-ten-	.
4F\	-tem	.	4c\	-tem	.	4f\	-tem	.	4a\	-tem	.
4r	.	.	4r	.	.	4r	.	.	4r	.	.
4F\	fa-	.	4c\	fac-	.	4f\	fa-	.	4a\	fa-	.
=3	=3	=3	=3	=3	=3	=3	=3	=3	=3	=3	=3
4F\	-cto-	.	4c\	-to-	.	4f\	-cto-	.	4a\	-cto-	.
4F\	-rem	.	4c\	-rem	.	4f\	-rem	.	4a\	-rem	.
4D\	ce-	.	4d\	ce-	.	4f\	ce-	.	4a\	ce-	.
8D\	-li	.	8d\	-li	.	8f\	-li	.	8a\	-li	.
8D\	et	.	8d\	et	.	8f\	et	.	8a\	et	.
!	!	!	!LO:LB:g=original	!	!	!LO:LB:g=original	!	!	!LO:LB:g=original	!	!
=4	=4	=4	=4	=4	=4	=4	=4	=4	=4	=4	=4
4G\	ter-	.	4d\	ter-	.	4g\	ter-	.	4b-\	ter-	.
4G\	-re	.	4d\	-re	.	4g\	-re	.	4b-\	-re	.
4r	.	.	4r	.	.	4r	.	.	4r	.	.
8G\	vi-	.	8d\	vi-	.	8g\	vi-	.	8b-\	vi-	.
8G\	-si-	.	8d\	-si-	.	8g\	-si-	.	8b-\	-si-	.
!LO:LB:g=original	!	!	!	!	!	!	!	!	!	!	!
=5	=5	=5	=5	=5	=5	=5	=5	=5	=5	=5	=5
*	*	*	*2\right	*	*	*2\right	*	*	*2\right	*	*
2C/	-bi-	.	2c\	-bi-	.	2e\	-bi-	.	2g\	-bi-	.
4C/	-li-	.	4c\	-li-	.	4e\	-li-	.	4g\	-li-	.
4C/	-um	.	4c\	-um	.	4e\	-um	.	4g\	-um	.
=6	=6	=6	=6	=6	=6	=6	=6	=6	=6	=6	=6
8.C/	o-	.	8.c\	o-	.	8.e\	o-	.	8.a\	o-	.
16C/	-mni-	.	16c\	-mni-	.	16e\	-mni-	.	16a\	-mni-	.
4C/	-um	.	4c\	-um	.	4e\	-um	.	4a\	-um	.
4r	.	.	4r	.	.	4r	.	.	4r	.	.
4C/	et	.	4c\	et	.	4e\	et	.	4g\	et	.
=7	=7	=7	=7	=7	=7	=7	=7	=7	=7	=7	=7
2C/	in	.	2c\	in-	.	2e\	in	.	2g\	in	.
4C/	vi-	.	4c\	-vi-	.	4e\	vi-	.	4g\	vi-	.
4C/	-si-	.	4c\	-si-	.	4e\	-si-	.	4g\	-si-	.
=8	=8	=8	=8	=8	=8	=8	=8	=8	=8	=8	=8
8.F\	-bi-	.	8.c\	-bi-	.	8.f\	-bi-	.	8.a\	-bi-	.
16F\	-li-	.	16c\	-li-	.	16f\	-li-	.	16a\	-li-	.
4F\	-um	.	4c\	-um	.	4f\	-um	.	4a\	-um	.
4r	.	.	4r	.	.	4r	.	.	4r	.	.
8.F\	et	.	8.c\	et	.	8.f\	et	.	8.a\	et	.
16F\	in	.	16c\	in	.	16f\	in	.	16a\	in	.
!	!	!	!LO:LB:g=original	!	!	!LO:LB:g=original	!	!	!LO:LB:g=original	!	!
=9	=9	=9	=9	=9	=9	=9	=9	=9	=9	=9	=9
*2\right	*	*	*	*	*	*	*	*	*	*	*
2F\	u-	.	2d\	u-	.	2f\	u-	.	2b-\	u-	.
2F\	-num	.	2d\	-num	.	2f\	-num	.	2b-\	-num	.
=10	=10	=10	=10	=10	=10	=10	=10	=10	=10	=10	=10
4.F\	Do-	.	4.c\	Do-	.	4.f\	Do-	.	4.a\	Do-	.
8F\	-mi-	.	8c\	-mi-	.	8f\	-mi-	.	8a\	-mi-	.
2F\	-num	.	2c\	-num	.	2f\	-num	.	2a\	-num	.
!LO:LB:g=original	!	!	!	!	!	!	!	!	!	!	!
=11	=11	=11	=11	=11	=11	=11	=11	=11	=11	=11	=11
2F\	Je-	.	2d\	Je-	.	2f\	Je-	.	2b-\	Je-	.
2F\	-sum	.	2d\	-sum	.	2f\	-sum	.	2b-\	-sum	.
=12	=12	=12	=12	=12	=12	=12	=12	=12	=12	=12	=12
2F\	Chri-	.	2c\	Chri-	.	2f\	Chri-	.	2a\	Chri-	.
4F\	-stum	.	4c\	-stum	.	4f\	-stum	.	4a\	-stum	.
4r	.	.	4r	.	.	4r	.	.	4r	.	.
=13	=13	=13	=13	=13	=13	=13	=13	=13	=13	=13	=13
!LO:TX:a:t=P:problem=poprawiana nuta	!	!	!	!	!	!	!	!	!	!	!
4.G\	fi-	.	4.c\	fi-	.	4.e\	fi-	.	4.b-\	fi-	.
!LO:TX:a:t=P:problem=poprawiana nuta	!	!	!	!	!	!	!	!	!	!	!
8G\	-li-	.	8c\	-li-	.	8e\	-li-	.	8b-\	-li-	.
2F\	-um	.	2c\	-um	.	2f\	-um	.	2a\	-um	.
=14	=14	=14	=14	=14	=14	=14	=14	=14	=14	=14	=14
!LO:TX:a:t=P:problem=poprawiana nuta	!	!	!	!	!	!	!	!	!	!	!
2G\	De-	.	2c\	De-	.	2e\	De-	.	2b-\	De-	.
2F\	-i	.	2c\	-i	.	2f\	-i	.	2a\	-i	.
=15	=15	=15	=15	=15	=15	=15	=15	=15	=15	=15	=15
4C/	u-	.	4c\	u-	.	4a\	u-	.	4cc\	u-	.
4C/	-ni-	.	4c\	-ni-	.	4a\	-ni-	.	4cc\	-ni-	.
4E\	-ge-	.	4c\	-ge-	.	4g\	-ge-	.	4b-\	-ge-	.
4F\	-ni-	.	4c\	-ni-	.	4f\	-ni-	.	4a\	-ni-	.
!	!	!	!	!	!	!LO:LB:g=original	!	!	!LO:LB:g=original	!	!
=16	=16	=16	=16	=16	=16	=16	=16	=16	=16	=16	=16
4C/	-tum	.	4c\	-tum	.	4e\	-tum	.	4g\	-tum	.
4r	.	.	4r	.	.	4r	.	.	4r	.	.
2c\	qui	.	2c\	qui	.	2e\	qui	.	2cc\	qui	.
!	!	!	!LO:LB:g=original	!	!	!	!	!	!	!	!
=17	=17	=17	=17	=17	=17	=17	=17	=17	=17	=17	=17
2F#X\	prop-	.	2d\	pro-	.	2a\	prop-	.	2cc\	prop-	.
4F#\	-ter	.	4d\	-pter	.	4a\	-ter	.	4cc\	-ter	.
4F#\	nos	.	4d\	nos	.	4a\	nos	.	4cc\	nos	.
!LO:LB:g=original	!	!	!	!	!	!	!	!	!	!	!
=18	=18	=18	=18	=18	=18	=18	=18	=18	=18	=18	=18
4.G\	ho-	.	4.d\	ho-	.	4.g\	ho-	.	4.b-X\	ho-	.
8G\	-mi-	.	8d\	-mi-	.	8g\	-mi-	.	8b-\	-mi-	.
4G\	-nes	.	4d\	-nes	.	4g\	-nes	.	4b-\	-nes	.
4G\	et	.	4d\	et	.	4g\	et	.	4b-\	et	.
=19	=19	=19	=19	=19	=19	=19	=19	=19	=19	=19	=19
4E\	prop-	.	4c\	prop-	.	4g\	prop-	.	4b-\	pro-	.
4E\	-ter	.	4c\	-ter	.	4g\	-ter	.	4b-\	-pter	.
4E\	nos-	.	4c\	no-	.	4g\	no-	.	4b-\	no-	.
8E\	-tram	.	8c\	-stram	.	8g\	-stram	.	8b-\	-stram	.
8E\	sa-	.	8c\	sa-	.	8g\	sa-	.	8b-\	sa-	.
=20	=20	=20	=20	=20	=20	=20	=20	=20	=20	=20	=20
2Fn\	-lu-	.	2c\	-lu-	.	2f\	-lu-	.	2a\	-lu-	.
4F\	-tem	.	4c\	-tem	.	4f\	-tem	.	4a\	-tem	.
4F\	de	.	4A\	de-	.	4f\	de	.	4f/	de	.
!	!	!	!	!	!	!LO:LB:g=original	!	!	!LO:LB:g=original	!	!
=21	=21	=21	=21	=21	=21	=21	=21	=21	=21	=21	=21
1AA	scen-	.	(2c\	-scen-	.	(2f\	scen-	.	1ff	scen-	.
.	.	.	2e-X\	.	.	(2cc\)	.	.	.	.	.
=22	=22	=22	=22	=22	=22	=22	=22	=22	=22	=22	=22
2BB-/	-dit	.	2d\)	.	.	2b-\)	.	.	(4gg\	.	.
.	.	.	.	.	.	.	.	.	4ff\)	.	.
2BB-/	de-	.	4f\	-dit	.	4f\	-dit	.	4dd\	-dit	.
.	.	.	4d\	de	.	4f\	de	.	4b-\	de	.
!	!	!	!LO:LB:g=original	!	!	!	!	!	!	!	!
=23	=23	=23	=23	=23	=23	=23	=23	=23	=23	=23	=23
!	!	!	!LO:TX:b:t=P:problem=przez 7 taktów tekst wpisany ołówkiem	!	!	!	!	!	!	!	!
1C	-ce-	.	1c	ce-	.	1f	ce-	.	(1a	ce-	.
!LO:LB:g=original	!	!	!	!	!	!	!	!	!	!	!
=24	=24	=24	=24	=24	=24	=24	=24	=24	=24	=24	=24
(>2C/	.	.	2c\	-lis	.	1e	.	.	1g)	.	.
2C#X/)	.	.	2B-\	.	.	.	.	.	.	.	.
=25	=25	=25	=25	=25	=25	=25	=25	=25	=25	=25	=25
4D\	-lis	.	4A\	-lis	.	4d\	-lis	.	4f/	-lis	.
4r	.	p	4r	.	.	4r	.	.	4r	.	p
.	.	.	.	.	.	.	.	p	.	.	.
!	!	!	!LO:TX:a:t=P:problem=kasownik zamazany ołówkiem	!	!	!	!	!	!	!	!
2D\	-de	.	2An\	de	.	2d\	de-	.	2f/	de-	.
=26	=26	=26	=26	=26	=26	=26	=26	=26	=26	=26	=26
2BBn/	scen-	.	2A-X\	scen-	.	2d\	-scen-	.	2f/	-scen-	.
4BB/	-dit	.	4A-\	-dit	.	4d\	-dit	.	4f/	-dit	.
4BB/	de	.	4A-\	de	.	4d\	de	.	4f/	de	.
=27	=27	=27	=27	=27	=27	=27	=27	=27	=27	=27	=27
[>1C	ce-	.	1G	ce-	.	[1c	ce-	.	(>1f	ce-	.
=28	=28	=28	=28	=28	=28	=28	=28	=28	=28	=28	=28
1C]	.	.	1G	.	.	1c]	.	.	1e)	.	.
=29	=29	=29	=29	=29	=29	=29	=29	=29	=29	=29	=29
4FF\ 4F	-lis	.	4An\	-lis	.	4c\	-lis	.	4f/	-lis	.
4r	.	.	4r	.	.	4r	.	.	4r	.	.
2r	.	.	2r	.	.	2r	.	.	2r	.	.
!LO:LB:g=original	!	!	!LO:LB:g=original	!	!	!LO:LB:g=original	!	!	!LO:LB:g=original	!	!
=30||	=30||	=30||	=30||	=30||	=30||	=30||	=30||	=30||	=30||	=30||	=30||
*k[b-e-]	*	*	*k[b-e-]	*	*	*k[b-e-]	*	*	*k[b-e-]	*	*
!LO:TX:a:t=Largo	!	!	!LO:TX:a:t=Largo	!	!LO:DY:rj	!LO:TX:a:t=Largo	!	!LO:DY:rj	!LO:TX:a:t=Largo	!	!LO:DY:rj
2BB-/	et	.	2B-\	et	p	2f\	et	p	2dd\	et	p
4BB-/	in-	.	4B-\	in-	.	4g\	in-	.	4ee-\	in-	.
4BB-/	-car-	.	4B-\	-car-	.	4f\	-car-	.	4dd\	-car-	.
=31	=31	=31	=31	=31	=31	=31	=31	=31	=31	=31	=31
2.BB-/	-na-	.	(2F/	-na-	.	(2f\	-na-	.	(2dd\	-na-	.
.	.	.	4G\)	.	.	4en\)	.	.	4cc\)	.	.
4BB-/	-tus	.	4A\	-tus	.	4e-X\	-tus	.	(8.g/L	-tus	.
.	.	.	.	.	.	.	.	.	16f/Jk)	.	.
=32	=32	=32	=32	=32	=32	=32	=32	=32	=32	=32	=32
2BB-/	est	.	2B-\	est	.	2d\	est	.	2f/	est	.
2D\	de	.	2B-\	de	.	2f\	de	.	2b-\	de	.
=33	=33	=33	=33	=33	=33	=33	=33	=33	=33	=33	=33
4.E-\	spi-	.	4.c\	spi-	.	4.f\	spi-	.	4.a\	spi-	.
8E-\	-ri-	.	8c\	-ri-	.	8f\	-ri-	.	8a\	-ri-	.
2D\	-tu	.	2B-\	-tu	.	2f\	-tu	.	2b-\	-tu	.
=34	=34	=34	=34	=34	=34	=34	=34	=34	=34	=34	=34
(2G\	san-	.	(2B-\	san-	.	(2d\	san-	.	(2b-\	san-	.
2E-\)	.	.	2G\)	.	.	2g\)	.	.	2cc\)	.	.
=35	=35	=35	=35	=35	=35	=35	=35	=35	=35	=35	=35
1D	-cto	.	1A	-cto	.	1f#X	-cto	.	1dd	-cto	.
!	!	!	!	!	!	!	!	!	!LO:LB:g=original	!	!
=36	=36	=36	=36	=36	=36	=36	=36	=36	=36	=36	=36
2G\	ex	.	2Bn\	ex	.	2g\	ex	.	2dd\	ex	.
2G\	Ma-	.	2B\	Ma-	.	2g\	Ma-	.	2dd\	Ma-	.
!LO:LB:g=original	!	!	!LO:LB:g=original	!	!	!LO:LB:g=original	!	!	!	!	!
=37	=37	=37	=37	=37	=37	=37	=37	=37	=37	=37	=37
2C/	-ri-	.	2c\	-ri-	.	2g\	-ri-	.	2ee-\	-ri-	.
2C/	-a	.	2e-\	-a	.	2g\	-a	.	2cc\	-a	.
=38	=38	=38	=38	=38	=38	=38	=38	=38	=38	=38	=38
2.F\	vir-	.	(2c\	vir-	.	2.f\	vir-	.	(2a\	vir-	.
.	.	.	4d\)	.	.	.	.	.	4b-\)	.	.
4F\	-gi-	.	(8.B-\L	-gi-	.	4f\	-gi-	.	(8.dd\L	-gi-	.
.	.	.	16A\Jk)	.	.	.	.	.	16cc\Jk)	.	.
=39	=39	=39	=39	=39	=39	=39	=39	=39	=39	=39	=39
4F\	-ne	.	4A\	-ne	.	4f\	-ne	.	4cc\	-ne	.
4r	.	.	4r	.	.	4r	.	.	4r	.	.
2F\	et	.	2F/	et	.	2f\	et	.	2f/	et	.
=40	=40	=40	=40	=40	=40	=40	=40	=40	=40	=40	=40
2BB-/	ho-	.	2B-\	ho-	.	2f\	ho-	.	2dd\	ho-	.
2D\	-mo	.	2B-\	-mo	.	2f\	-mo	.	2b-\	-mo	.
=41	=41	=41	=41	=41	=41	=41	=41	=41	=41	=41	=41
(4E-\	ho-	.	(4B-\	ho-	.	2e-\	ho-	.	(4g\	ho-	.
4C\)	.	.	4c\	.	.	.	.	.	4a\)	.	.
(4BB-/	-mo	.	8d\L	.	.	(4d\	-mo-	.	(4b-\	-mo	.
.	.	.	8c\J)	.	.	.	.	.	.	.	.
4GG/)	.	.	4B-\	-mo	.	4en\)	.	.	4cc\)	.	.
=42	=42	=42	=42	=42	=42	=42	=42	=42	=42	=42	=42
!	!	!	!	!	!LO:DY:rj:t=f.	!	!	!LO:DY:rj:t=f	!	!	!LO:DY:rj
(2FF/	fa-	.	[1B-	fa-	f	(1f	fa-	f	[1dd	fa-	f
4BB-\	.	.	.	.	.	.	.	.	.	.	.
4D\	.	.	.	.	.	.	.	.	.	.	.
!	!	!	!	!	!	!	!	!	!LO:LB:g=original	!	!
=43	=43	=43	=43	=43	=43	=43	=43	=43	=43	=43	=43
2F\)	.	.	4B-\]	.	.	2e-X\)	.	.	(4dd\]	.	.
.	.	.	4A\	.	.	.	.	.	4cc\)	.	.
2F\	-ctus	.	2c\	-ctus	.	2e-\	-ctus	.	(4g\	-ctus	.
.	.	.	.	.	.	.	.	.	4a\)	.	.
!	!	!	!LO:LB:g=original	!	!	!	!	!	!	!	!
=44	=44	=44	=44	=44	=44	=44	=44	=44	=44	=44	=44
4BB-/	est	.	4B-\	est	.	4d\	est	.	4b-\	est	.
4r	.	.	4r	.	.	4r	.	.	4r	.	.
2r	.	.	2r	.	f	2r	.	.	2r	.	.
!LO:LB:g=original	!	!	!	!	!	!LO:LB:g=original	!	!	!	!	!
=45	=45	=45	=45	=45	=45	=45	=45	=45	=45	=45	=45
!	!	!LO:DY:rj	!	!	!	!LO:TX:a:t=P:problem=dopisane ołówkiem "fff"	!	!LO:DY:rj	!	!	!LO:DY:rj
2D\	cru-	f	2f#X\	cru-	.	2a\	cru-	f	2dd\	cru-	f
2d\	-ci-	.	2f#\	-ci-	.	2a\	-ci-	.	2dd\	-ci-	.
=46	=46	=46	=46	=46	=46	=46	=46	=46	=46	=46	=46
2e-\	-fi-	.	2g\	-fi-	.	2g\	-fi-	.	2dd\	-fi-	.
2E-\	-xus	.	2e-\	-xus	.	2g\	-xus	.	2cc\	-xus	.
=47	=47	=47	=47	=47	=47	=47	=47	=47	=47	=47	=47
2BBn/	cru-	.	2d\	cru-	.	2a-X\	cru-	.	2ff\	cru-	.
2Bn\	-ci-	.	2d\	-ci-	.	2g\	-ci-	.	2ff\	-ci-	.
=48	=48	=48	=48	=48	=48	=48	=48	=48	=48	=48	=48
2c\	-fi-	.	2d\	-fi-	.	2g\	-fi-	.	2ff\	-fi-	.
2C/	-xus	.	2c\	-xus	.	2g\	-xus	.	2ee-\	-xus	.
=49	=49	=49	=49	=49	=49	=49	=49	=49	=49	=49	=49
!	!	!LO:DY:rj	!	!	!	!	!	!LO:DY:rj:t=p.	!	!	!
4.F#X\	e-	p	4.An\	e-	.	4.an\	e-	p	4.dd\	e-	.
8F#\	-ti-	.	8A\	-ti-	.	8a\	-ti-	.	8dd\	-ti-	.
4F#\	-am	.	4d\	-am	.	4a\	-am	.	4cc\	-am	.
4F#\	pro	.	4d\	pro	.	4a\	pro	.	4cc\	pro	.
!	!	!	!	!	!	!	!	!	!LO:LB:g=original	!	!
=50	=50	=50	=50	=50	=50	=50	=50	=50	=50	=50	=50
2G\	no-	.	2d\	no-	.	(4a\	no-	.	(4cc\	no-	.
.	.	.	.	.	.	4g\)	.	.	4b-\)	.	.
!	!	!	!LO:TX:b:t=V&colon;S&colon;	!	!	!LO:TX:b:t=V&colon;S.	!	!	!	!	!
2G\	-bis	.	2d\	-bis	.	2g\	-bis-	.	2b-\	-bis	.
!	!	!	!LO:PB:g=original	!	!	!LO:PB:g=original	!	!	!	!	!
=51	=51	=51	=51	=51	=51	=51	=51	=51	=51	=51	=51
(1A-X	pas-	.	(2d\	pas-	.	(2f\	pas-	.	2bn\	pas-	<
.	.	.	2e-\)	.	.	2g-X\)	.	.	2cc\	.	[[
=52	=52	=52	=52	=52	=52	=52	=52	=52	=52	=52	=52
2G\)	.	.	1en	-sus	.	1gn	-sus	sf	1cc	-sus	f >
2C/	-sus	.	.	.	.	.	.	.	.	.	]]
!LO:LB:g=original	!	!	!	!	!	!	!	!	!	!	!
=53	=53	=53	=53	=53	=53	=53	=53	=53	=53	=53	=53
(1B-	pa-	.	(2en\	pas-	.	2g\	pas-	<	(2cc#X\	pas-	.
.	.	.	2f\)	.	.	2a-X\	.	[	2dd\)	.	.
=54	=54	=54	=54	=54	=54	=54	=54	=54	=54	=54	=54
2An\)	.	.	1f#X	-sus	.	1an	-sus	>	1dd	-sus	.
2D\	-sus	.	.	.	.	.	.	]	.	.	.
=55	=55	=55	=55	=55	=55	=55	=55	=55	=55	=55	=55
!	!	!	!	!	!LO:DY:rj	!	!	!	!	!	!
1GG	pa-	.	(2d\	pa-	p	2g\	pas-	p	2b-\	pas-	.
.	.	.	4B-\	.	.	(2d\	.	.	[2g\	.	.
.	.	.	4G\	.	.	.	.	.	.	.	.
=56	=56	=56	=56	=56	=56	=56	=56	=56	=56	=56	=56
1AA	-sus	.	2En/)	.	.	2c#X\)	.	.	2g\]	.	.
.	.	.	(4F/	-sus	.	2d\	-sus	.	2f/	-sus	.
.	.	.	4G/)	.	.	.	.	.	.	.	.
=57	=57	=57	=57	=57	=57	=57	=57	=57	=57	=57	=57
2AA/	et	.	2A\	et	.	2c#X\	-et	.	2en/	et	.
2BB-/	se-	.	2G#X\	se-	.	2d\	se-	.	2e/	se-	.
=58	=58	=58	=58	=58	=58	=58	=58	=58	=58	=58	=58
2AA/	-pul-	.	2A\	-pul-	.	2d\	-pul-	.	2.en/	-pul-	.
2AA/	-tus	.	2A\	-tus	.	2c#X\	-tus	.	.	.	.
.	.	.	.	.	.	.	.	.	4e/	-tus	.
!	!	!	!LO:LB:g=original	!	!	!	!	!	!LO:LB:g=original	!	!
=59	=59	=59	=59	=59	=59	=59	=59	=59	=59	=59	=59
4D\	est	.	4F#X/	est	.	4d\	est	.	4d/	est	.
4r	.	.	4r	.	p	4r	.	p	4r	.	p
!	!	!LO:DY:t=p.	!	!	!	!	!	!	!	!	!
2D\	se-	p	2D/	se-	.	2d\	se-	.	2d/	se-	.
!	!	!	!	!	!	!LO:LB:g=original	!	!	!	!	!
=60	=60	=60	=60	=60	=60	=60	=60	=60	=60	=60	=60
2D\	-pul-	.	2D/	-pul-	.	2d\	-pul-	.	2d/	-pul-	.
2D\	-tus	.	2D/	-tus	.	2d\	-tus	.	2d/	-tus	.
=61	=61	=61	=61	=61	=61	=61	=61	=61	=61	=61	=61
!LO:TX:b:t=V&colon;S.	!	!	!	!	!	!	!	!	!LO:TX:b:t=V&colon;S&colon;	!	!
1D;	est	.	1D;	est	.	1d;	est	.	1d;	est	.
!LO:PB:g=original	!	!	!	!	!	!	!	!	!LO:PB:g=original	!	!
=62||	=62||	=62||	=62||	=62||	=62||	=62||	=62||	=62||	=62||	=62||	=62||
*k[b-]	*	*	*k[b-]	*	*	*k[b-]	*	*	*k[b-]	*	*
!LO:TX:a:t=tempo primo	!	!	!LO:TX:a:t=tempo 1.	!	!	!LO:TX:a:t=tempo 1.mo	!	!	!LO:TX:a:t=tempo primo	!	!
2F\	et	.	2c\	et	.	2f\	et	.	2a\	et	.
4F\	re-	.	4c\	re-	.	4f\	re-	.	4a\	re-	.
4F\	-sur-	.	4c\	-sur-	.	4f\	-sur-	.	4a\	-sur-	.
=63	=63	=63	=63	=63	=63	=63	=63	=63	=63	=63	=63
2F\	-re-	.	2c\	-re-	.	2f\	-re-	.	2a\	-re-	.
4F\	-xit	.	4c\	-xit	.	4f\	-xit	.	4a\	-xit	.
4r	.	.	4r	.	.	4r	.	.	4r	.	.
=64	=64	=64	=64	=64	=64	=64	=64	=64	=64	=64	=64
2F\	ter-	.	2c\	ter-	.	2f\	ter-	.	2a\	ter-	.
4D\	-ti-	.	4d\	-ti-	.	4f\	-ti-	.	4a\	-ti-	.
4D\	-a	.	4d\	-a	.	4f\	-a	.	4a\	-a	.
=65	=65	=65	=65	=65	=65	=65	=65	=65	=65	=65	=65
2G\	di-	.	2d\	di-	.	2g\	di-	.	2b-\	di-	.
4G\	-e	.	4d\	-e	.	4g\	-e	.	4b-\	-e	.
4r	.	.	4r	.	.	4r	.	.	4r	.	.
!	!	!	!LO:LB:g=original	!	!	!	!	!	!	!	!
=66	=66	=66	=66	=66	=66	=66	=66	=66	=66	=66	=66
2C/	et	.	2c\	et	.	2e\	et	.	2g\	et	.
2C/	a-	.	2c\	a-	.	2e\	as-	.	2g\	a-	.
!	!	!	!	!	!	!LO:LB:g=original	!	!	!	!	!
=67	=67	=67	=67	=67	=67	=67	=67	=67	=67	=67	=67
1C	-scen-	.	1c	-scen-	.	1e	-cen-	.	1g	-scen-	.
=68	=68	=68	=68	=68	=68	=68	=68	=68	=68	=68	=68
2C/	-dit	.	2c\	-dit	.	2e\	-dit	.	2g\	-dit	.
2C/	in	.	2c\	in	.	2e\	in	.	2g\	in	.
!LO:LB:g=original	!	!	!	!	!	!	!	!	!LO:LB:g=original	!	!
=69	=69	=69	=69	=69	=69	=69	=69	=69	=69	=69	=69
2F\	ce-	.	2c\	ce-	.	2f\	ce-	.	2a\	ce-	.
4F\	-lum	.	4c\	-lum	.	4f\	-lum	.	4a\	-lum	.
4F\	et	.	4c\	et	.	4a\	et	.	4a\	et	.
=70	=70	=70	=70	=70	=70	=70	=70	=70	=70	=70	=70
2.E-X\	i-	.	2.c#X\	i-	.	2.g\	i-	.	2.a\	i-	.
4E-\	-te-	.	4c#\	-te-	.	4g\	-te-	.	4a\	-te-	.
=71	=71	=71	=71	=71	=71	=71	=71	=71	=71	=71	=71
2D\	-rum	.	2d\	-rum	.	2f#X\	-rum	.	2a\	-rum	.
2D\	ven-	.	2d\	ven-	.	2f#\	ven-	.	2a\	ven-	.
=72	=72	=72	=72	=72	=72	=72	=72	=72	=72	=72	=72
2.E-X\	-tu-	.	2.c#X\	-tu-	.	2.g\	-tu-	.	2.a\	-tu-	.
4E-\	-rus	.	4c#\	-rus	.	4g\	-rus	.	4a\	-rus	.
=73	=73	=73	=73	=73	=73	=73	=73	=73	=73	=73	=73
2D\	est	.	2d\	est	.	2f#X\	est	.	2a\	est	.
!	!	!LO:DY:t=f	!	!	!	!	!	!	!	!	!
.	.	f	.	.	f	.	.	.	.	.	.
4D\	ju-	.	4d\	ju-	.	4f#\	ju-	f	4a\	iu-	f
4D\	-di-	.	4d\	-di-	.	4f#\	-di-	.	4a\	-di-	.
!	!	!	!LO:LB:g=original	!	!	!	!	!	!	!	!
=74	=74	=74	=74	=74	=74	=74	=74	=74	=74	=74	=74
2BB-/	-ca-	.	2d\	-ca-	.	2g\	-ca-	.	2dd\	-ca-	.
2C/	-re	.	2e-X\	-re	.	2g\	-re	.	2cc\	-re	.
!	!	!	!	!	!	!LO:LB:g=original	!	!	!	!	!
=75	=75	=75	=75	=75	=75	=75	=75	=75	=75	=75	=75
2A\	vi-	.	2d\	vi-	.	2f#X\	vi-	.	2cc\	vi-	.
4G\	-vos	.	4d\	-vos	.	4g\	-vos	.	4b-\	-vos	.
4G\	et	.	4d\	et	.	4g\	et	.	4b-\	et	.
!LO:LB:g=original	!	!	!	!	!	!	!	!	!	!	!
=76	=76	=76	=76	=76	=76	=76	=76	=76	=76	=76	=76
1D	mor-	.	(1d	mor-	.	[1g	mo-	.	1b-	mor-	.
!	!	!	!	!	!	!	!	!	!LO:LB:g=original	!	!
=77	=77	=77	=77	=77	=77	=77	=77	=77	=77	=77	=77
1D	-tu-	.	1d)	-tu-	.	2g\]	.	.	1a	-tu-	.
.	.	.	.	.	.	2f#X\	-rtu-	.	.	.	.
=78	=78	=78	=78	=78	=78	=78	=78	=78	=78	=78	=78
4G\	-os	.	4B-\	-os	.	4g\	-os	.	4g\	-os	.
!	!	!	!	!	!LO:DY:t=p	!	!	!	!	!	!
4r	.	p	4r	.	p	4r	.	p	4r	.	p
4G\	et	.	4d\	et	.	4g\	et	.	4b-\	et	.
4G\	in	.	4d\	in	.	4g\	in	.	4b-\	in	.
=79	=79	=79	=79	=79	=79	=79	=79	=79	=79	=79	=79
2G\	spi-	.	2d\	spi-	.	2g\	spi-	.	2b-\	spi-	.
4G\	-si-	.	4d\	-ri-	.	4g\	-ri-	.	4b-\	-ri-	.
4G\	-tum	.	4d\	-tum	.	4g\	-tum	.	4b-\	-tum	.
=80	=80	=80	=80	=80	=80	=80	=80	=80	=80	=80	=80
2G\	san-	.	2e-X\	sanc-	.	2g\	sanc-	.	2cc\	sanc-	.
2G\	-ctum	.	2e-\	-tum	.	2g\	-tum	.	2cc\	-tum	.
!	!	!	!LO:LB:g=original	!	!	!	!	!	!	!	!
=81	=81	=81	=81	=81	=81	=81	=81	=81	=81	=81	=81
4.G\	do-	.	4.d\	do-	.	4.g\	Do-	.	4.b-\	do-	.
8G\	-mi-	.	8d\	-mi-	.	8g\	-mi-	.	8b-\	-mi-	.
4G\	-num	.	4d\	-num	.	4g\	-num	.	4b-\	-num	.
4r	.	.	4r	.	.	4r	.	.	4r	.	.
!	!	!	!	!	!	!LO:LB:g=original	!	!	!	!	!
=82	=82	=82	=82	=82	=82	=82	=82	=82	=82	=82	=82
2D\	qui-	.	2d\	qui-	.	2f#X\	qui-	.	2a\	qui	.
2F#X\	-cum	.	2d\	-cum	.	2a\	-cum	.	2dd\	cum	.
!LO:LB:g=original	!	!	!	!	!	!	!	!	!	!	!
=83	=83	=83	=83	=83	=83	=83	=83	=83	=83	=83	=83
1G	pa-	.	1d	pa-	.	1g	pa-	.	1b-	pa-	.
=84	=84	=84	=84	=84	=84	=84	=84	=84	=84	=84	=84
2D\	-tre	.	2d\	-tre	.	2f#X\	-tre	.	2a\	-tre	.
2F#X\	et	.	2d\	et	.	2a\	et	.	2dd\	et	.
!	!	!	!	!	!	!	!	!	!LO:LB:g=original	!	!
=85	=85	=85	=85	=85	=85	=85	=85	=85	=85	=85	=85
4.G\	fi-	.	4.d\	fi-	.	4.g\	fi-	.	4.b-\	fi-	.
8G\	-li-	.	8d\	-li-	.	8g\	-li-	.	8b-\	-li-	.
2G\	-o	.	2d\	-o	.	2g\	-o	.	2b-\	-o	.
=86	=86	=86	=86	=86	=86	=86	=86	=86	=86	=86	=86
4C/	si-	.	4cn\	si-	.	4en\	si-	.	4g\	si-	.
4C/	-mul	.	4c\	-mul	.	4e\	-mul	.	4g\	-mul	.
4En\	a-	.	4c\	a-	.	4g\	a-	.	4cc\	a-	.
4E\	-do-	.	4c\	-do-	.	4g\	-do-	.	4cc\	-do-	.
=87	=87	=87	=87	=87	=87	=87	=87	=87	=87	=87	=87
2F\	-ra-	.	2c\	-ra-	.	2f\	-ra-	.	2a\	-ra-	.
4F\	-tur	.	4c\	-tur	.	4f\	-tur	.	4a\	-tur	.
4F\	et	.	4c\	et	.	4f\	et	.	4a\	et	.
!	!	!	!LO:LB:g=original	!	!	!	!	!	!	!	!
=88	=88	=88	=88	=88	=88	=88	=88	=88	=88	=88	=88
4C/	con	.	4c\	con-	.	4e\	con	.	4g\	con	.
4C/	glo-	.	4c\	-glo-	.	4e\	glo-	.	4g\	glo-	.
4E\	-ri-	.	4c\	-ri-	.	4g\	-ri-	.	4cc\	-ri-	.
4E\	-fi-	.	4c\	-fi-	.	4g\	-fi-	.	4cc\	-fi-	.
!	!	!	!	!	!	!LO:LB:g=original	!	!	!	!	!
=89	=89	=89	=89	=89	=89	=89	=89	=89	=89	=89	=89
2F\	-ca-	.	2c\	-ca-	.	2f\	-ca-	.	2a\	-ca-	.
4F\	-tur	.	4c\	-tur	.	4f\	-tur-	.	4a\	-tur	.
4A\	et	.	4A\	et	.	4a\	-et	.	4a\	et	.
!LO:LB:g=original	!	!	!	!	!	!	!	!	!	!	!
=90	=90	=90	=90	=90	=90	=90	=90	=90	=90	=90	=90
2A\	u-	.	2A\	u-	.	2a\	u-	.	2a\	u-	.
2A\	-nam	.	2A\	-nam	.	2a\	-nam	.	2a\	-nam	.
=91	=91	=91	=91	=91	=91	=91	=91	=91	=91	=91	=91
2A\	sanc-	.	2A\	sanc-	.	2a\	san-	.	2a\	san-	.
4A\	-tam	.	4A\	-tam	.	4a\	-ctam	.	4a\	-ctam	.
4A\	ca-	.	4A\	ca-	.	4a\	ca-	.	4a\	ca-	.
!	!	!	!	!	!	!	!	!	!LO:LB:g=original	!	!
=92	=92	=92	=92	=92	=92	=92	=92	=92	=92	=92	=92
2.A\	-to-	.	2.A\	-to-	.	2.a\	-to-	.	2.a\	-to-	.
4A\	-li-	.	4A\	-li-	.	4a\	-li-	.	4a\	-li-	.
=93	=93	=93	=93	=93	=93	=93	=93	=93	=93	=93	=93
2A\	-cam	.	2A\	-cam	.	2a\	-cam	.	2a\	-cam	.
2D\	et	.	2f\	et	.	2a\	et	.	2dd\	et	.
=94	=94	=94	=94	=94	=94	=94	=94	=94	=94	=94	=94
1F	a-	.	1d	a-	.	1a	a-	.	1bn	a-	.
!	!	!	!LO:LB:g=original	!	!	!	!	!	!	!	!
=95	=95	=95	=95	=95	=95	=95	=95	=95	=95	=95	=95
1E	-po-	.	1e	-po-	.	1a	-po-	.	1cc	-po-	.
=96	=96	=96	=96	=96	=96	=96	=96	=96	=96	=96	=96
2.F\	-sto-	.	2.d\	-sto-	.	2.a\	-sto-	.	2.bn\	-sto-	.
4F\	-li-	.	4d\	-li-	.	4a\	-li-	.	4b\	-li-	.
=97	=97	=97	=97	=97	=97	=97	=97	=97	=97	=97	=97
1E	-cam	.	1e	-cam	.	1a	-cam	.	1cc	-cam	.
!	!	!	!	!	!	!LO:LB:g=original	!	!	!	!	!
=98	=98	=98	=98	=98	=98	=98	=98	=98	=98	=98	=98
2D\	ec-	.	2f\	ec-	.	2a\	ec-	.	2dd\	ec-	.
(2A\	-cle-	.	[2e\	-cle-	.	[2a\	-cle-	.	[2cc\	-cle-	.
=99	=99	=99	=99	=99	=99	=99	=99	=99	=99	=99	=99
2.E\	.	.	2e\]	.	.	2a\]	.	.	2cc\]	.	.
.	.	.	2d\	-si-	.	2g#X\	-si-	.	2bn\	-si-	.
4E\)	-si-	.	.	.	.	.	.	.	.	.	.
!LO:LB:g=original	!	!	!	!	!	!	!	!	!	!	!
=100	=100	=100	=100	=100	=100	=100	=100	=100	=100	=100	=100
2A\	-am	.	2c\	-am	.	2a\	-am	.	2a\	-am	.
2r	.	.	2r	.	.	2r	.	.	2r	.	.
!	!	!	!	!	!	!	!	!	!LO:LB:g=original	!	!
=101	=101	=101	=101	=101	=101	=101	=101	=101	=101	=101	=101
1D	et	.	1G	et	.	1f	et	.	1bn	et	.
=102	=102	=102	=102	=102	=102	=102	=102	=102	=102	=102	=102
2C/	vi-	.	2A\	vi-	.	2f\	vi-	.	2cc\	vi-	.
2C/	-tam	.	2A\	-tam	.	2f\	-tam	.	2cc\	-tam	.
=103	=103	=103	=103	=103	=103	=103	=103	=103	=103	=103	=103
1D	ven-	.	1G	ven-	.	1f	ven-	.	1bn	ven-	.
=104	=104	=104	=104	=104	=104	=104	=104	=104	=104	=104	=104
2C/	-tu-	.	2A\	-tu-	.	2f\	-tu-	.	2cc\	-tu-	.
2C/	-ri	.	2A\	-ri	.	2f\	-ri	.	2cc\	-ri	.
!	!	!	!LO:LB:g=original	!	!	!	!	!	!	!	!
=105	=105	=105	=105	=105	=105	=105	=105	=105	=105	=105	=105
(2B-\	ven-	.	1c	ven-	.	(2e\	ven-	.	(2cc\	ven-	.
2A\)	.	.	.	.	.	2f\)	.	.	2dd\)	.	.
=106	=106	=106	=106	=106	=106	=106	=106	=106	=106	=106	=106
2G\	-tu-	.	2c\	-tu-	.	2b-X\	-tu-	.	2ee\	-tu-	.
2F\	-ri	.	2c\	-ri	.	2a\	-ri	.	2ff\	-ri	.
!	!	!	!	!	!	!LO:LB:g=original	!	!	!	!	!
=107	=107	=107	=107	=107	=107	=107	=107	=107	=107	=107	=107
2.BB-/	se-	.	2.d\	se-	.	2.f\	se-	.	2.b-X\	se-	.
4BB-/	-cu-	.	4d\	-cu-	.	4f\	-cu-	.	4b-\	-cu-	.
=108	=108	=108	=108	=108	=108	=108	=108	=108	=108	=108	=108
2.C/	-li	.	2.c\	-li	.	2e\	-li-	.	2g\	-li	<
.	.	.	.	.	.	2f\	-ven-	.	4a\	ven-	.
4F\	ven-	.	4A\	ven-	.	.	.	.	4f\	.	.
!LO:LB:g=original	!	!	!	!	!	!	!	!	!	!	!
=109	=109	=109	=109	=109	=109	=109	=109	=109	=109	=109	=109
!	!	!	!	!	!LO:HP:t=cres	!	!	!LO:HP:t=cres	!	!	!
(2A\	-tu-	.	2c\	-tu-	<	1f	-tu-	<	(2cc\	-tu-	.
2G\)	.	.	2Bn\	.	.	.	.	.	2dd\)	.	[
!	!	!	!	!	!	!	!	!	!LO:LB:g=original	!	!
=110	=110	=110	=110	=110	=110	=110	=110	=110	=110	=110	=110
2C#X/	-ri	.	2B-X\	-ri	.	2g\	-ri-	.	2ee\	-ri	.
2D\	ven-	.	2A\	ven-	.	2f\	-ven-	.	2ff\	ven-	.
.	.	.	.	.	.	.	.	f	.	.	.
=111	=111	=111	=111	=111	=111	=111	=111	=111	=111	=111	=111
!	!	!LO:DY:rj	!	!	!	!	!	!	!	!	!LO:DY:rj:t=f
1BB-	-tu-	f	1d	-tu-	.	1b-	-tu-	.	1ff	-tu-	f
=112	=112	=112	=112	=112	=112	=112	=112	=112	=112	=112	=112
1GG	-ri	.	1d	-ri	.	1b-	-ri	.	1gg	-ri	.
=113	=113	=113	=113	=113	=113	=113	=113	=113	=113	=113	=113
[>1C	se-	.	(2B-\	se-	.	(2g\	se-	.	2ee\	se-	.
.	.	.	4A\	.	.	2f\	.	.	[2ff\	.	.
.	.	.	4F/)	.	.	.	.	.	.	.	.
!	!	!	!LO:LB:g=original	!	!	!	!	!	!	!	!
=114	=114	=114	=114	=114	=114	=114	=114	=114	=114	=114	=114
2C/]	.	.	2c\	.	.	4g\	.	.	2ff\]	.	.
.	.	.	.	.	.	4a\)	.	.	.	.	.
2C/	-cu-	.	2c\	-cu-	.	2b-\	-cu-	.	2ee\	-cu-	.
=115	=115	=115	=115	=115	=115	=115	=115	=115	=115	=115	=115
4F\	-li	.	4c\	-li	.	4a\	-li	.	4ff\	-li	.
4r	.	.	4r	.	.	4r	.	.	4r	.	.
2r	.	.	2r	.	.	2r	.	.	2r	.	.
!	!	!	!	!	!	!LO:LB:g=original	!	!	!	!	!
=116	=116	=116	=116	=116	=116	=116	=116	=116	=116	=116	=116
1F	a-	.	1c	a-	.	1a	a-	.	1ff	a-	.
=117	=117	=117	=117	=117	=117	=117	=117	=117	=117	=117	=117
4F\	-men	.	4c\	-men	.	4a\	-men	.	4ff\	-men	.
4r	.	.	4r	.	.	4r	.	.	4r	.	.
4F\	a-	.	4c\	a-	.	4a\	a-	.	4ff\	a-	.
4C\	-men	.	4c\	-men	.	4g\	-men	.	4ff\	-men	.
=118	=118	=118	=118	=118	=118	=118	=118	=118	=118	=118	=118
2F\	a-	.	2c\	a-	.	2a\	a-	.	2ff\	a-	.
4F\	-men-	.	4c\	-men	.	4a\	-men	.	4ff\	-men	.
4r	.	.	4r	.	.	4r	.	.	4r	.	.
==	==	==	==	==	==	==	==	==	==	==	==
*-	*-	*-	*-	*-	*-	*-	*-	*-	*-	*-	*-
!!!system-decoration: [(s1,s2,s3,s4)]
!!!RDF**kern: > = above
!!!RDF**dynam: p = "p:"
!!!RDF**dynam: f = "f:"
!!!RDF**dynam: sf = "sf:"
!!!ENC: Marta Lawrence
!!!END: 2021-01-25
!!!ENC: Berenika Jozajtis
!!!END: 2021-01-23
!!!YEC: Copyright 2022 Narodowy Instytut Fryderyka Chopina (https://polishscores.org)
!!!YEM: License CC-BY-4.0 (https://creativecommons.org/licenses/by/4.0)
